X:51
T:Reel 51
M:4/4
K:Dmix
L:1/8
AG|F2DF cFAF|FFEF dGAB|cGcA eGcF|EGcB AGFG|F2AF cFAF|FGAB Adde|cBAB cAGF|EDCE D2|FG|Addc dedc|AGAB cAGc|ABcB c2cd|efed cBAG|Addc dedc|AGAB c2Bc|dBcA GECE|FDEC D2|
